static/images/onboarding/feedback-illustration.svg

<svg width="360" height="360" fill="none" xmlns="http://www.w3.org/2000/svg"><g clip-path="url(#a)"><path opacity=".5" d="M339.286 85.943c35.619 43.588-18.46 114.42-79.777 176.469-32.529 32.936-155.244 111.493-193.547 7.238-18.948-51.559 44.077-125.643 79.777-176.47 60.097-85.632 151.341-58.958 193.547-7.237ZM5.295 225.248c-11.304-8.295-2.602-28.707 8.295-47.493 5.774-9.921 30.496-36.513 46.191-13.743 7.726 11.222-2.846 33.017-8.295 47.492-9.19 24.397-32.773 23.584-46.19 13.744Z" fill="#C94FC9"/><path d="m283.579 226.305-110.191 42.694c-5.124 1.952-10.816-.569-12.768-5.611 0 0-17.891-53.022-24.397-69.693-14.15-36.433-33.016-61.887-33.016-61.887l9.352-21.143 97.18-37.653c5.123-1.951 10.816.57 12.767 5.612 0 0 19.924 20.168 42.532 65.627 7.888 15.939 24.234 69.205 24.234 69.205 1.952 5.123-.569 10.897-5.693 12.849Z" fill="#E9F1FC"/><path d="m266.518 197.629 8.38 18.79 79.322-35.375-8.38-18.79-79.322 35.375Z" fill="#FFBF00"/><path d="m274.876 216.384-22.445-1.545c-.244 0-.325-.326-.244-.488l14.232-16.753 8.457 18.786Z" fill="#FFE092"/><path d="m342.213 163.85 8.376 18.785 7.969-3.578c1.22-.569 1.79-2.033 1.22-3.253l-6.343-14.313c-.569-1.22-2.033-1.789-3.253-1.22l-7.969 3.579Z" fill="#FF6680"/><path d="m338.824 165.394 8.38 18.791 3.788-1.69-8.38-18.79-3.788 1.689Z" fill="#999"/><path d="m256.741 215.083-4.31-.244c-.244 0-.325-.325-.244-.488l2.765-3.334 1.789 4.066Z" fill="#575E75"/><path d="m266.49 197.63 2.782 6.238 72.341-32.261-2.782-6.239-72.341 32.262ZM272.12 210.193l2.749 6.165 72.341-32.261-2.749-6.165-72.341 32.261Z" fill="#FFAB1A"/><path d="m103.207 131.808 10.327-5.042a5.77 5.77 0 0 0 2.196-5.042l-3.171-11.059-9.352 21.143Z" fill="#D9E3F2"/><path d="m306.35 137.257 3.416-6.912c.244-.488.732-.814 1.301-.895l7.644-1.138c1.383-.163 1.952-1.871.976-2.847l-5.53-5.367a1.717 1.717 0 0 1-.488-1.464l1.301-7.644c.244-1.383-1.219-2.44-2.439-1.789l-6.831 3.578a1.722 1.722 0 0 1-1.545 0l-6.832-3.578c-1.219-.651-2.683.406-2.439 1.789l1.301 7.644c.081.569-.081 1.139-.488 1.464l-5.53 5.367c-.976.976-.488 2.684.976 2.847l7.644 1.138c.57.081 1.057.407 1.301.895l3.416 6.912c.488 1.301 2.277 1.301 2.846 0ZM106.868 265.828l4.554 1.626c.325.081.569.407.65.732l1.22 4.635c.244.814 1.301 1.057 1.871.407l2.927-3.822c.244-.244.57-.407.895-.407l4.798.244c.894.081 1.382-.894.894-1.626l-2.683-3.985c-.163-.325-.244-.651-.082-.976l1.708-4.473c.326-.813-.406-1.626-1.301-1.382l-4.635 1.382c-.326.082-.651 0-.976-.162l-3.741-3.009c-.651-.57-1.708-.082-1.708.813l-.162 4.798a.894.894 0 0 1-.488.813l-4.066 2.602c-.651.326-.488 1.464.325 1.79Z" fill="#F2F2F2"/><g opacity=".7"><path opacity=".7" fill-rule="evenodd" clip-rule="evenodd" d="M138.337 121.887c.895-1.464 2.847-2.196 4.473-1.708 1.627.488 3.578-.244 4.473-1.707l2.277 6.017c-.895 1.464-2.846 2.196-4.473 1.708-1.626-.488-3.578.244-4.473 1.708l-2.277-6.018Z" fill="#59C059"/><path opacity=".7" d="m141.591 130.426-3.497-9.271" stroke="#389438" stroke-width="1.5" stroke-linecap="round" stroke-linejoin="round"/></g><path opacity=".7" fill-rule="evenodd" clip-rule="evenodd" d="m155.011 115.056-1.545 3.497 1.382 3.578 3.497 1.545 3.578-1.382 1.545-3.497-1.382-3.578-3.497-1.545-3.578 1.382Z" fill="#EC5858"/><path d="m253.246 160.597-86.77 34.236-25.617-58.552 82.38-32.447s9.596 11.222 17.321 27.08c9.921 20.493 12.686 29.683 12.686 29.683Z" fill="#5CB1D6"/><path fill-rule="evenodd" clip-rule="evenodd" d="M197.052 131.809s-3.578-4.392.894-7.075c4.473-2.765 6.344 0 6.344 0s-1.546-6.344 2.683-7.726c4.229-1.383 7.156-.732 7.807 3.741 0 0 3.497-4.473 6.994-.407s-21.713 12.361-24.722 11.467ZM161.271 171.982s-3.578-4.392.894-7.075c4.473-2.684 6.343 0 6.343 0s-1.545-6.343 2.684-7.726c4.229-1.382 7.156-.732 7.807 3.741 0 0 3.497-4.473 6.994-.407 3.334 4.148-21.795 12.361-24.722 11.467Z" fill="#2E8EB8"/><path d="m204.089 148.024 5.693-1.383c.244-.081.488-.244.65-.569l1.708-3.985c.163-.325.488-.569.813-.569 1.22 0 5.205.081 5.449.894.244.732-2.277 1.708-3.09 1.952-.326.081-.732.488-.814.895l-.244 1.545c-.081.406-.325.65-.732.732l-5.204 1.057h-.244l-1.789-.082h-.163l-2.033-.487Z" fill="#E9F1FC"/><path fill-rule="evenodd" clip-rule="evenodd" d="M184.204 158.401c-3.904 1.138-7.563.488-8.702-3.416-.325-.975-.325-1.789-.244-2.602l-1.789-5.611c-.162-.651.407-1.22.976-.976l3.66 1.382c.569-.569 1.382-.975 2.358-1.301.976-.244 1.87-.406 2.684-.244l2.358-3.171c.407-.488 1.22-.407 1.383.244l1.545 5.692c.488.57.894 1.383 1.219 2.359 1.139 3.903-1.545 6.505-5.448 7.644Zm-2.196-1.952c-.569.163-1.22.082-1.708-.244-.244-.162-.325-.488-.162-.813.162-.244.569-.325.813-.163.244.163.488.163.732.082.488-.163.732-.651.65-1.139l-.243-.813c-.895 0-1.79-.488-1.952-.976-.163-.569.732-.894 1.87-1.22 1.139-.325 2.033-.569 2.277 0 .163.488-.244 1.383-1.057 1.871l.244.813c.163.488.651.732 1.139.65.243-.081.487-.243.569-.487a.601.601 0 0 1 .732-.326.602.602 0 0 1 .325.732 2.016 2.016 0 0 1-1.301 1.139 2.24 2.24 0 0 1-1.627-.163c-.325.488-.732.895-1.301 1.057Z" fill="#fff"/><path fill-rule="evenodd" clip-rule="evenodd" d="M181.681 158.889s-13.662 4.391-13.418 6.668c.244 2.277 14.882-4.391 14.882-4.391s-8.783 6.343-8.783 8.783c0 2.439 14.069-9.678 17.159-10.328 3.091-.651 26.837-8.783 26.837-8.783s4.554 1.057 6.587 0c2.033-1.057-3.497-5.449-5.205-5.286-.894.081-1.138.976-10.572 2.602-5.936.976-1.463-2.765-19.436 2.684" fill="#fff"/><path fill-rule="evenodd" clip-rule="evenodd" d="M200.873 148.236s4.961-2.521 5.53-6.506c.569-3.985 5.774-7.563 6.506-6.506.732 1.057-3.091 1.464-4.88 6.425-1.707 4.96-5.53 6.749-5.53 6.749" fill="#fff"/><path fill-rule="evenodd" clip-rule="evenodd" d="M221.207 163.443s-2.602-3.172.651-5.124c3.253-1.951 4.554 0 4.554 0s-1.139-4.554 1.87-5.529c3.009-.976 5.124-.57 5.611 2.683 0 0 2.521-3.253 5.042-.244 2.521 3.009-15.532 8.864-17.728 8.214Z" fill="#2E8EB8"/><path d="M170.056 205.161c-2.602 1.301-16.752-1.057-22.364-10.246-.162-.326-.325-.57-.488-.895-2.358-4.635-.569-10.247 3.904-12.524a8.617 8.617 0 0 1 7.075-.325c.65-2.358 2.277-4.31 4.473-5.448 4.472-2.196 10.002-.244 12.279 4.391" stroke="#ED5F87" stroke-width="2" stroke-miterlimit="10" stroke-linecap="round"/><path d="M175.501 180.602c-.406.244-.894.244-1.138-.163l-2.44-3.253c-.244-.406-.244-.894.163-1.138.406-.244.894-.244 1.138.162l2.44 3.253c.244.407.163.895-.163 1.139ZM106.777 83.252l-6.856 5.226 65.073 85.371 6.856-5.225-65.073-85.372Z" fill="#FF4D6A"/><path d="m165.007 173.852 7.807 5.367c.406.244.813.326 1.057.082l.732-.57c.244-.162.325-.569.162-1.057l-3.009-9.108-6.749 5.286ZM127.278 108.225l-8.701 6.669-21.47-28.22c-.487-.65-.406-1.626.326-2.114l6.343-4.798c.651-.488 1.627-.406 2.115.326l21.387 28.137Z" fill="#FF6680"/><path d="M112.555 109.038c-.244.244-.65.163-.894-.081l-14.963-19.68c-.244-.244-.163-.65.08-.895.245-.244.651-.162.895.082l14.964 19.68c.244.244.162.65-.082.894Z" fill="#FF4D6A"/><path d="m98.108 88.085-.97.74 3.253 4.268.97-.74-3.253-4.268ZM97.808 77.56l-.97.74 3.253 4.269.97-.74-3.254-4.268Z" fill="#FF4D6A"/><path fill-rule="evenodd" clip-rule="evenodd" d="M100.116 71.874c2.358 3.416.894 9.027-.082 9.759-.894.732-6.668 1.3-9.596-1.708a1.125 1.125 0 0 1-.244-.325c-1.3-1.545-1.057-3.904.488-5.205.813-.65 1.79-.976 2.765-.813.081-.976.488-1.87 1.301-2.521 1.545-1.301 3.904-1.139 5.205.488 0 .162.081.244.163.325ZM261.703 157.913c-.65 6.912-8.457 12.361-10.409 12.361s-9.759-5.449-10.409-12.361v-.651c0-3.334 2.765-6.099 6.099-6.099 1.708 0 3.253.732 4.31 1.871 1.057-1.139 2.684-1.871 4.31-1.871a6.091 6.091 0 0 1 6.099 6.099v.651ZM249.669 182.31c1.383 3.903-1.626 8.783-2.683 9.27-1.058.488-6.669-.569-8.702-4.228-.081-.082-.163-.244-.163-.326-.813-1.87 0-3.984 1.871-4.798.894-.406 1.952-.406 2.846-.081a3.43 3.43 0 0 1 1.952-2.033c1.87-.813 3.985 0 4.798 1.87 0 .082 0 .244.081.326Z" fill="#ED5F87"/><path opacity=".3" fill-rule="evenodd" clip-rule="evenodd" d="m232.264 183.204-51.721 20.493c-.976.407-2.033-.081-2.359-1.057-.406-.976.082-2.033 1.058-2.358l51.72-20.493c.976-.407 2.034.081 2.359 1.057.325.894-.163 2.033-1.057 2.358ZM226.818 195.89l-42.695 16.915c-.975.407-2.033-.081-2.358-1.057-.406-.976.081-2.033 1.057-2.358l42.695-16.915c.975-.407 2.033.081 2.358 1.057.406.895-.081 1.952-1.057 2.358Z" fill="#5CB1D6"/><path opacity=".3" fill-rule="evenodd" clip-rule="evenodd" d="m256.582 199.713-68.799 27.324c-.975.406-2.033-.082-2.358-1.057-.407-.976.081-2.033 1.057-2.359l68.799-27.324c.976-.407 2.033.081 2.358 1.057.407.895-.081 2.033-1.057 2.359ZM199.084 234.112c.894 2.684-1.057 6.018-1.87 6.343-.732.325-4.555-.407-5.937-2.846-.081-.082-.081-.163-.163-.244-.569-1.22 0-2.684 1.301-3.253a2.694 2.694 0 0 1 1.952 0c.244-.569.651-1.139 1.301-1.383 1.22-.569 2.684 0 3.253 1.22.082 0 .163.082.163.163ZM209.658 230.046c.895 2.683-1.057 6.018-1.87 6.343-.813.325-4.554-.407-5.937-2.846-.081-.082-.081-.163-.162-.244-.569-1.22 0-2.684 1.301-3.253a2.694 2.694 0 0 1 1.952 0c.244-.57.65-1.139 1.301-1.383 1.22-.569 2.683 0 3.253 1.22.081 0 .081.081.162.163ZM251.536 216.546l-35.293 13.988c-.976.406-2.033-.082-2.359-1.058-.406-.975.082-2.033 1.057-2.358l35.294-13.987c.976-.407 2.033.081 2.359 1.057.406.976-.082 2.033-1.058 2.358Z" fill="#575E75"/></g><defs><clipPath id="a"><path fill="#fff" d="M0 0h360v360H0z"/></clipPath></defs></svg>

<svg width="360" height="360" viewBox="0 0 360 360" fill="none" xmlns="http://www.w3.org/2000/svg">
<g clip-path="url(#clip0_262_7251)">
<path opacity="0.5" d="M339.286 85.9427C374.905 129.531 320.826 200.363 259.509 262.412C226.98 295.348 104.265 373.905 65.9619 269.65C47.0138 218.091 110.039 144.007 145.739 93.1804C205.836 7.54808 297.08 34.2218 339.286 85.9427Z" fill="#C94FC9"/>
<path opacity="0.5" d="M5.29514 225.248C-6.00865 216.953 2.69283 196.541 13.59 177.755C19.3639 167.834 44.0858 141.242 59.781 164.012C67.5067 175.234 56.9348 197.029 51.4862 211.504C42.2968 235.901 18.7133 235.088 5.29514 225.248Z" fill="#C94FC9"/>
<path d="M283.579 226.305L173.388 268.999C168.264 270.951 162.572 268.43 160.62 263.388C160.62 263.388 142.729 210.366 136.223 193.695C122.073 157.262 103.207 131.808 103.207 131.808L112.559 110.665L209.739 73.0124C214.862 71.0606 220.555 73.5816 222.506 78.6236C222.506 78.6236 242.43 98.7915 265.038 144.251C272.926 160.19 289.272 213.456 289.272 213.456C291.224 218.579 288.703 224.353 283.579 226.305Z" fill="#E9F1FC"/>
<path d="M266.518 197.629L274.898 216.419L354.22 181.044L345.84 162.254L266.518 197.629Z" fill="#FFBF00"/>
<path d="M274.876 216.384L252.431 214.839C252.187 214.839 252.106 214.513 252.187 214.351L266.419 197.598L274.876 216.384Z" fill="#FFE092"/>
<path d="M342.213 163.85L350.589 182.635L358.558 179.057C359.778 178.488 360.348 177.024 359.778 175.804L353.435 161.491C352.866 160.271 351.402 159.702 350.182 160.271L342.213 163.85Z" fill="#FF6680"/>
<path d="M338.824 165.394L347.204 184.185L350.992 182.495L342.612 163.705L338.824 165.394Z" fill="#999999"/>
<path d="M256.741 215.083L252.431 214.839C252.187 214.839 252.106 214.514 252.187 214.351L254.952 211.017L256.741 215.083Z" fill="#575E75"/>
<path d="M266.49 197.63L269.272 203.868L341.613 171.607L338.831 165.368L266.49 197.63Z" fill="#FFAB1A"/>
<path d="M272.12 210.193L274.869 216.358L347.21 184.097L344.461 177.932L272.12 210.193Z" fill="#FFAB1A"/>
<path d="M103.207 131.808L113.534 126.766C115.08 125.547 115.893 123.676 115.73 121.724L112.559 110.665L103.207 131.808Z" fill="#D9E3F2"/>
<path d="M306.35 137.257L309.766 130.345C310.01 129.857 310.498 129.531 311.067 129.45L318.711 128.312C320.094 128.149 320.663 126.441 319.687 125.465L314.157 120.098C313.751 119.691 313.588 119.122 313.669 118.634L314.97 110.99C315.214 109.607 313.751 108.55 312.531 109.201L305.7 112.779C305.212 113.023 304.642 113.023 304.155 112.779L297.323 109.201C296.104 108.55 294.64 109.607 294.884 110.99L296.185 118.634C296.266 119.203 296.104 119.773 295.697 120.098L290.167 125.465C289.191 126.441 289.679 128.149 291.143 128.312L298.787 129.45C299.357 129.531 299.844 129.857 300.088 130.345L303.504 137.257C303.992 138.558 305.781 138.558 306.35 137.257Z" fill="#F2F2F2"/>
<path d="M106.868 265.828L111.422 267.454C111.747 267.535 111.991 267.861 112.072 268.186L113.292 272.821C113.536 273.635 114.593 273.878 115.163 273.228L118.09 269.406C118.334 269.162 118.66 268.999 118.985 268.999L123.783 269.243C124.677 269.324 125.165 268.349 124.677 267.617L121.994 263.632C121.831 263.307 121.75 262.981 121.912 262.656L123.62 258.183C123.946 257.37 123.214 256.557 122.319 256.801L117.684 258.183C117.358 258.265 117.033 258.183 116.708 258.021L112.967 255.012C112.316 254.442 111.259 254.93 111.259 255.825L111.097 260.623C111.097 260.948 110.934 261.274 110.609 261.436L106.543 264.038C105.892 264.364 106.055 265.502 106.868 265.828Z" fill="#F2F2F2"/>
<g opacity="0.7">
<path opacity="0.7" fill-rule="evenodd" clip-rule="evenodd" d="M138.337 121.887C139.232 120.423 141.184 119.691 142.81 120.179C144.437 120.667 146.388 119.935 147.283 118.472L149.56 124.489C148.665 125.953 146.714 126.685 145.087 126.197C143.461 125.709 141.509 126.441 140.614 127.905L138.337 121.887Z" fill="#59C059"/>
<path opacity="0.7" d="M141.591 130.426L138.094 121.155" stroke="#389438" stroke-width="1.5" stroke-linecap="round" stroke-linejoin="round"/>
</g>
<path opacity="0.7" fill-rule="evenodd" clip-rule="evenodd" d="M155.011 115.056L153.466 118.553L154.848 122.131L158.345 123.676L161.923 122.294L163.468 118.797L162.086 115.219L158.589 113.674L155.011 115.056Z" fill="#EC5858"/>
<path d="M253.246 160.597L166.476 194.833L140.859 136.281L223.239 103.834C223.239 103.834 232.835 115.056 240.56 130.914C250.481 151.407 253.246 160.597 253.246 160.597Z" fill="#5CB1D6"/>
<path fill-rule="evenodd" clip-rule="evenodd" d="M197.052 131.809C197.052 131.809 193.474 127.417 197.946 124.734C202.419 121.969 204.29 124.734 204.29 124.734C204.29 124.734 202.744 118.39 206.973 117.008C211.202 115.625 214.129 116.276 214.78 120.749C214.78 120.749 218.277 116.276 221.774 120.342C225.271 124.408 200.061 132.703 197.052 131.809Z" fill="#2E8EB8"/>
<path fill-rule="evenodd" clip-rule="evenodd" d="M161.271 171.982C161.271 171.982 157.693 167.59 162.165 164.907C166.638 162.223 168.508 164.907 168.508 164.907C168.508 164.907 166.963 158.564 171.192 157.181C175.421 155.799 178.348 156.449 178.999 160.922C178.999 160.922 182.496 156.449 185.993 160.515C189.327 164.663 164.198 172.876 161.271 171.982Z" fill="#2E8EB8"/>
<path d="M204.089 148.024L209.782 146.641C210.026 146.56 210.27 146.397 210.432 146.072L212.14 142.087C212.303 141.762 212.628 141.518 212.953 141.518C214.173 141.518 218.158 141.599 218.402 142.412C218.646 143.144 216.125 144.12 215.312 144.364C214.986 144.445 214.58 144.852 214.498 145.259L214.254 146.804C214.173 147.21 213.929 147.454 213.522 147.536L208.318 148.593C208.237 148.593 208.155 148.593 208.074 148.593L206.285 148.511C206.203 148.511 206.203 148.511 206.122 148.511L204.089 148.024Z" fill="#E9F1FC"/>
<path fill-rule="evenodd" clip-rule="evenodd" d="M184.204 158.401C180.3 159.539 176.641 158.889 175.502 154.985C175.177 154.01 175.177 153.196 175.258 152.383L173.469 146.772C173.307 146.121 173.876 145.552 174.445 145.796L178.105 147.178C178.674 146.609 179.487 146.203 180.463 145.877C181.439 145.633 182.333 145.471 183.147 145.633L185.505 142.462C185.912 141.974 186.725 142.055 186.888 142.706L188.433 148.398C188.921 148.968 189.327 149.781 189.652 150.757C190.791 154.66 188.107 157.262 184.204 158.401ZM182.008 156.449C181.439 156.612 180.788 156.531 180.3 156.205C180.056 156.043 179.975 155.717 180.138 155.392C180.3 155.148 180.707 155.067 180.951 155.229C181.195 155.392 181.439 155.392 181.683 155.311C182.171 155.148 182.415 154.66 182.333 154.172L182.09 153.359C181.195 153.359 180.3 152.871 180.138 152.383C179.975 151.814 180.87 151.489 182.008 151.163C183.147 150.838 184.041 150.594 184.285 151.163C184.448 151.651 184.041 152.546 183.228 153.034L183.472 153.847C183.635 154.335 184.123 154.579 184.611 154.497C184.854 154.416 185.098 154.254 185.18 154.01C185.342 153.684 185.668 153.603 185.912 153.684C186.237 153.847 186.318 154.172 186.237 154.416C185.993 154.985 185.505 155.392 184.936 155.555C184.367 155.717 183.797 155.636 183.309 155.392C182.984 155.88 182.577 156.287 182.008 156.449Z" fill="white"/>
<path fill-rule="evenodd" clip-rule="evenodd" d="M181.681 158.889C181.681 158.889 168.019 163.28 168.263 165.557C168.507 167.834 183.145 161.166 183.145 161.166C183.145 161.166 174.362 167.509 174.362 169.949C174.362 172.388 188.431 160.271 191.521 159.621C194.612 158.97 218.358 150.838 218.358 150.838C218.358 150.838 222.912 151.895 224.945 150.838C226.978 149.781 221.448 145.389 219.74 145.552C218.846 145.633 218.602 146.528 209.168 148.154C203.232 149.13 207.705 145.389 189.732 150.838" fill="white"/>
<path fill-rule="evenodd" clip-rule="evenodd" d="M200.873 148.236C200.873 148.236 205.834 145.715 206.403 141.73C206.972 137.745 212.177 134.167 212.909 135.224C213.641 136.281 209.818 136.688 208.029 141.649C206.322 146.609 202.499 148.398 202.499 148.398" fill="white"/>
<path fill-rule="evenodd" clip-rule="evenodd" d="M221.207 163.443C221.207 163.443 218.605 160.271 221.858 158.319C225.111 156.368 226.412 158.319 226.412 158.319C226.412 158.319 225.273 153.765 228.282 152.79C231.291 151.814 233.406 152.22 233.893 155.473C233.893 155.473 236.414 152.22 238.935 155.229C241.456 158.238 223.403 164.093 221.207 163.443Z" fill="#2E8EB8"/>
<path d="M170.056 205.161C167.454 206.462 153.304 204.104 147.692 194.915C147.53 194.589 147.367 194.345 147.204 194.02C144.846 189.385 146.635 183.773 151.108 181.496C153.385 180.358 155.906 180.277 158.183 181.171C158.833 178.813 160.46 176.861 162.656 175.723C167.128 173.527 172.658 175.479 174.935 180.114" stroke="#ED5F87" stroke-width="2" stroke-miterlimit="10" stroke-linecap="round"/>
<path d="M175.501 180.602C175.095 180.846 174.607 180.846 174.363 180.439L171.923 177.186C171.679 176.78 171.679 176.292 172.086 176.048C172.492 175.804 172.98 175.804 173.224 176.21L175.664 179.463C175.908 179.87 175.827 180.358 175.501 180.602Z" fill="#FF4D6A"/>
<path d="M106.777 83.2521L99.9214 88.4777L164.994 173.849L171.85 168.624L106.777 83.2521Z" fill="#FF4D6A"/>
<path d="M165.007 173.852L172.814 179.219C173.22 179.463 173.627 179.545 173.871 179.301L174.603 178.731C174.847 178.569 174.928 178.162 174.765 177.674L171.756 168.566L165.007 173.852Z" fill="#FF6680"/>
<path d="M127.278 108.225L118.577 114.894L97.1078 86.6748C96.6199 86.0242 96.7012 85.0483 97.4331 84.5604L103.776 79.7624C104.427 79.2744 105.403 79.3558 105.891 80.0877L127.278 108.225Z" fill="#FF6680"/>
<path d="M112.555 109.038C112.311 109.282 111.905 109.201 111.661 108.957L96.6976 89.277C96.4536 89.033 96.535 88.6264 96.7789 88.3824C97.0229 88.1384 97.4295 88.2198 97.6735 88.4637L112.637 108.144C112.881 108.388 112.799 108.794 112.555 109.038Z" fill="#FF4D6A"/>
<path d="M98.1078 88.0851L97.1377 88.8245L100.391 93.0931L101.361 92.3537L98.1078 88.0851Z" fill="#FF4D6A"/>
<path d="M97.8075 77.5608L96.8374 78.3003L100.091 82.5689L101.061 81.8294L97.8075 77.5608Z" fill="#FF4D6A"/>
<path fill-rule="evenodd" clip-rule="evenodd" d="M100.116 71.8741C102.474 75.2896 101.01 80.9009 100.034 81.6328C99.1397 82.3647 93.3658 82.9339 90.4382 79.925C90.3569 79.8437 90.2756 79.7623 90.1942 79.5997C88.8931 78.0546 89.137 75.6962 90.6822 74.3951C91.4954 73.7445 92.4713 73.4192 93.4471 73.5818C93.5285 72.606 93.9351 71.7114 94.7483 71.0609C96.2934 69.7597 98.6518 69.9223 99.9529 71.5488C99.9529 71.7114 100.034 71.7928 100.116 71.8741Z" fill="#ED5F87"/>
<path fill-rule="evenodd" clip-rule="evenodd" d="M261.703 157.913C261.053 164.825 253.246 170.274 251.294 170.274C249.342 170.274 241.535 164.825 240.885 157.913C240.885 157.669 240.885 157.425 240.885 157.262C240.885 153.928 243.65 151.163 246.984 151.163C248.692 151.163 250.237 151.895 251.294 153.034C252.351 151.895 253.978 151.163 255.604 151.163C258.938 151.163 261.703 153.847 261.703 157.262C261.703 157.506 261.703 157.669 261.703 157.913Z" fill="#ED5F87"/>
<path fill-rule="evenodd" clip-rule="evenodd" d="M249.669 182.31C251.052 186.213 248.043 191.093 246.986 191.58C245.928 192.068 240.317 191.011 238.284 187.352C238.203 187.27 238.121 187.108 238.121 187.026C237.308 185.156 238.121 183.042 239.992 182.228C240.886 181.822 241.944 181.822 242.838 182.147C243.163 181.253 243.814 180.521 244.79 180.114C246.66 179.301 248.775 180.114 249.588 181.984C249.588 182.066 249.588 182.228 249.669 182.31Z" fill="#ED5F87"/>
<path opacity="0.3" fill-rule="evenodd" clip-rule="evenodd" d="M232.264 183.204L180.543 203.697C179.567 204.104 178.51 203.616 178.184 202.64C177.778 201.664 178.266 200.607 179.242 200.282L230.962 179.789C231.938 179.382 232.996 179.87 233.321 180.846C233.646 181.74 233.158 182.879 232.264 183.204Z" fill="#5CB1D6"/>
<path opacity="0.3" fill-rule="evenodd" clip-rule="evenodd" d="M226.818 195.89L184.123 212.805C183.148 213.212 182.09 212.724 181.765 211.748C181.359 210.772 181.846 209.715 182.822 209.39L225.517 192.475C226.492 192.068 227.55 192.556 227.875 193.532C228.281 194.427 227.794 195.484 226.818 195.89Z" fill="#5CB1D6"/>
<path opacity="0.3" fill-rule="evenodd" clip-rule="evenodd" d="M256.582 199.713L187.783 227.037C186.808 227.443 185.75 226.955 185.425 225.98C185.018 225.004 185.506 223.947 186.482 223.621L255.281 196.297C256.257 195.89 257.314 196.378 257.639 197.354C258.046 198.249 257.558 199.387 256.582 199.713Z" fill="#575E75"/>
<path opacity="0.3" fill-rule="evenodd" clip-rule="evenodd" d="M199.084 234.112C199.978 236.796 198.027 240.13 197.214 240.455C196.482 240.78 192.659 240.048 191.277 237.609C191.196 237.527 191.196 237.446 191.114 237.365C190.545 236.145 191.114 234.681 192.415 234.112C193.066 233.868 193.717 233.868 194.367 234.112C194.611 233.543 195.018 232.973 195.668 232.729C196.888 232.16 198.352 232.729 198.921 233.949C199.003 233.949 199.084 234.031 199.084 234.112Z" fill="#575E75"/>
<path opacity="0.3" fill-rule="evenodd" clip-rule="evenodd" d="M209.658 230.046C210.553 232.729 208.601 236.064 207.788 236.389C206.975 236.714 203.234 235.982 201.851 233.543C201.77 233.461 201.77 233.38 201.689 233.299C201.12 232.079 201.689 230.615 202.99 230.046C203.641 229.802 204.291 229.802 204.942 230.046C205.186 229.476 205.592 228.907 206.243 228.663C207.463 228.094 208.926 228.663 209.496 229.883C209.577 229.883 209.577 229.964 209.658 230.046Z" fill="#575E75"/>
<path opacity="0.3" fill-rule="evenodd" clip-rule="evenodd" d="M251.536 216.546L216.243 230.534C215.267 230.94 214.21 230.452 213.884 229.476C213.478 228.501 213.966 227.443 214.941 227.118L250.235 213.131C251.211 212.724 252.268 213.212 252.594 214.188C253 215.164 252.512 216.221 251.536 216.546Z" fill="#575E75"/>
</g>
<defs>
<clipPath id="clip0_262_7251">
<rect width="360" height="360" fill="white"/>
</clipPath>
</defs>
</svg>
